build/img/sprite/icon-glasses.svg

<svg width="18" height="18" viewBox="0 0 18 18" fill="none" xmlns="http://www.w3.org/2000/svg">
<path d="M1.05469 8.3262V5.61003C1.05469 4.02695 2.33578 2.74902 3.91641 2.74902C4.2075 2.74902 4.4434 2.51277 4.4434 2.22168C4.4434 1.93059 4.20715 1.69434 3.9157 1.69434C1.74937 1.69434 0 3.44757 0 5.61003V9.33061C0.300234 8.9467 0.656016 8.6078 1.05469 8.3262Z" fill="currentColor"/>
<path d="M14.0836 1.69434C13.7925 1.69434 13.5566 1.93059 13.5566 2.22168C13.5566 2.51277 13.7929 2.74902 14.0843 2.74902C15.6671 2.74902 16.9454 4.02976 16.9454 5.61003V8.3262C17.344 8.6078 17.6998 8.9467 18 9.33061V5.61003C18 3.44336 16.2468 1.69434 14.0836 1.69434Z" fill="currentColor"/>
<path fill-rule="evenodd" clip-rule="evenodd" d="M10.3238 11.2919C10.7994 9.66473 12.3048 8.47266 14.0836 8.47266C16.2431 8.47266 18 10.2295 18 12.389C18 14.5485 16.2431 16.3054 14.0836 16.3054C11.9996 16.3054 10.2908 14.6692 10.1738 12.614L9.75653 12.1968C9.55448 11.9948 9.28586 11.8836 9 11.8836C8.71414 11.8836 8.44548 11.9948 8.24347 12.1968L7.82617 12.6141C7.70913 14.6693 6.00036 16.3055 3.91641 16.3055C1.7569 16.3055 0 14.5486 0 12.3891C0 10.2296 1.7569 8.47266 3.91641 8.47266C5.69521 8.47266 7.20056 9.66477 7.67616 11.2919C8.05099 10.9921 8.51284 10.8289 9 10.8289C9.48716 10.8289 9.94897 10.9921 10.3238 11.2919ZM6.76875 12.389C6.76875 13.9906 5.47038 15.289 3.86875 15.289C2.26712 15.289 0.96875 13.9906 0.96875 12.389C0.96875 10.7874 2.26712 9.48901 3.86875 9.48901C5.47038 9.48901 6.76875 10.7874 6.76875 12.389ZM16.9562 12.389C16.9562 13.9906 15.6579 15.289 14.0562 15.289C12.4546 15.289 11.1562 13.9906 11.1562 12.389C11.1562 10.7874 12.4546 9.48901 14.0562 9.48901C15.6579 9.48901 16.9562 10.7874 16.9562 12.389Z" fill="currentColor"/>
</svg>

<svg width="18" height="18" fill="none" xmlns="http://www.w3.org/2000/svg"><path d="M1.055 8.326V5.61a2.86 2.86 0 012.861-2.861.527.527 0 100-1.055A3.913 3.913 0 000 5.61v3.72c.3-.383.656-.722 1.055-1.004zm13.029-6.632a.527.527 0 100 1.055 2.86 2.86 0 012.861 2.861v2.716c.399.282.755.62 1.055 1.005V5.61a3.913 3.913 0 00-3.916-3.916z" fill="currentColor"/><path fill-rule="evenodd" clip-rule="evenodd" d="M10.324 11.292a3.923 3.923 0 013.76-2.82A3.92 3.92 0 0118 12.39a3.92 3.92 0 01-3.916 3.916 3.921 3.921 0 01-3.91-3.691l-.417-.417A1.063 1.063 0 009 11.884c-.286 0-.555.11-.757.313l-.417.417a3.921 3.921 0 01-3.91 3.691A3.92 3.92 0 010 12.39a3.92 3.92 0 013.916-3.916 3.923 3.923 0 013.76 2.819c.375-.3.837-.463 1.324-.463.487 0 .949.163 1.324.463zm-3.555 1.097a2.9 2.9 0 11-5.8 0 2.9 2.9 0 015.8 0zm10.187 0a2.9 2.9 0 11-5.8 0 2.9 2.9 0 015.8 0z" fill="currentColor"/></svg>
